src/view/frontend/web/images/mageforge-logo.svg

<svg xmlns="http://www.w3.org/2000/svg" width="352" height="399" fill="none" viewBox="0 0 352 399"><path fill="#e5622a" fill-rule="evenodd" d="M176 0 0 101.614V297l176 101.614L352 297V101.614zM39 275.5V124l37.24-22.386L101.5 162l25-88.56 38-21.94v295.439L126.5 325V188l-18 51H95l-18.76-51v109zm148.5 71.439V51.5L313 124v46h-37.5v-23.632l-50-28.868V188H280v38.5h-54.5V325z" clip-rule="evenodd"/></svg>

<svg width="352" height="399" viewBox="0 0 352 399" fill="none" xmlns="http://www.w3.org/2000/svg">
<path fill-rule="evenodd" clip-rule="evenodd" d="M176 0L0 101.614V297L176 398.614L352 297V101.614L176 0ZM39 275.5V124L76.2391 101.614L101.5 162L126.5 73.4393L164.5 51.5V346.939L126.5 325V188L108.5 239H95L76.2391 188V297L39 275.5ZM187.5 346.939V51.5L313 124V170H275.5V146.368L225.5 117.5V188H280V226.5H225.5V325L187.5 346.939Z" fill="#E5622A"/>
</svg>
